X:1
T:LES BUGNES
C:Michel PLATRE
Z:Creative Commons BY-NC-SA
L:1/8
M:6/8
K:C
V:1 treble nm="Part_1"
V:1
 d2 d g2 g | e2 e d2 d | cdc B2 B | AGA B2 G | d2 d g2 g | e2 e d2 d | cdc B2 B | ABA G3 || %8
 cBA G2 G | dcd e2 c | cBA G2 c | d2 f e2 c | cBA G2 G | dcd e2 c | cBA G2 c | d2 e c3 |] %16

